icon/lg/gulp.svg

<svg width="256" height="566" xmlns="http://www.w3.org/2000/svg" preserveAspectRatio="xMidYMid"><path d="m197.28 548.749 5.427-90.43 14.985-25.58s-34.106 13.952-91.205 13.952c-57.1 0-90.689-13.694-90.689-13.694l16.794 27.904 5.941 87.848c0 9.418 31.059 17.052 69.374 17.052 38.313 0 69.373-7.634 69.373-17.052M180.161 126.454l11.391-45.025 63.081-66.376L238.007.892l-66.784 70.707-13.226 53.793a886.14 886.14 0 0 0-29.873-.497c-70.336 0-127.355 8.016-127.355 17.902 0 9.887 57.019 17.902 127.355 17.902 70.335 0 127.353-8.015 127.353-17.902 0-7.28-30.924-13.546-75.316-16.343" fill="#D34A47"/><path d="M173.535 151.669s-2.467.553-9.724.584c-7.259.03-12.413-.047-14.466-1.917-.552-.502-.854-1.499-.851-2.174.006-1.285.918-2.042 2.08-2.516l1.099 1.724c-.478.165-.751.36-.752.568-.004.976 7.422 1.644 13.102 1.572 5.681-.07 12.545-.538 12.551-1.5 0-.291-.519-.565-1.422-.781l1.094-1.712c1.472.457 2.757 1.34 2.754 2.868-.014 2.598-3.32 2.993-5.465 3.284" fill="#FFF"/><path d="M254.509 15.184c1.586-1.832-.821-6.518-5.376-10.465C244.576.774 239.596-.94 238.007.892c-1.587 1.832.821 6.518 5.378 10.463 4.555 3.946 9.537 5.662 11.124 3.829M194.246 327.865c-1.495-14.384 31.462-35.216 23.004-35.883-18.208 1.041-27.27 21.338-36.431 42.596-3.357 7.791-14.844 41.013-22.378 36.923-7.532-4.088 9.765-31.407 14.613-47.631-5.594 4.102-26.109 20.041-31.396 5.114-8.5 7.219-26.663 11.13-24.614-7.833-4.522 8.01-14.671 19.193-26.853 14.546-15.998-6.101 9.27-57.062 15.553-54.491 6.284 2.57-1.268 14.179-3.246 18.687-4.35 9.921-9.375 22.393-6.018 24.946 5.751 4.374 21.401-16.547 21.749-17.007 2.927-3.867 11.266-29.166 17.987-26.261 6.721 2.905-16.764 36.308-7.983 42.937 1.771 1.338 9.017-.825 13.425-5.594 2.852-3.085 1.871-9.918 11.378-32.59 9.507-22.671 17.98-50.905 24.5-48.754 6.52 2.15 1.146 16.641-1.193 22.043-10.976 25.354-29.956 67.241-21.005 64.07 8.951-3.17 13.612-3.356 22.377-13.613 8.765-10.257 8.361-27.152 14.203-26.793 5.844.36 4.863 5.777 3.446 9.902 5.75-6.58 27.256-20.438 32.448-6.713 6.15 16.249-30.769 39.72-21.564 38.523 8.975-1.167 23.515-10.376 29.723-18.749l17.088-153.626s-17.195 14.23-126.589 14.23c-109.395 0-124.811-13.934-124.811-13.934l14.548 140.224c7.722-21.947 26.059-66.339 54.963-64.849 13.148.678 30.7 25.995 15.665 26.853-6.364.362-7.01-12.637-14.546-14.546-5.438-1.378-13.009 3.043-17.902 7.833-9.758 9.55-30.745 47.229-27.972 66.014 3.533 23.949 33.048-8.322 38.042-17.903 3.517-6.749 5.893-26.745 13.585-24.647 7.693 2.098-.671 22.734-6.247 40.979-6.264 20.487-9.557 42.098-17.408 39.612-7.852-2.484 4.938-28.932 4.475-33.566-7.38 6.809-20.976 24.047-38.37 15.515l9.035 87.078s24.013 18.973 96.35 18.973c72.337 0 97.239-18.677 97.239-18.677l11.219-100.857c-9.179 8.938-38.229 24.81-40.089 6.919" fill="#D34A47"/></svg>

<?xml version="1.0" encoding="UTF-8" standalone="no" ?>
<svg viewBox="0 0 256 566" version="1.1" xmlns="http://www.w3.org/2000/svg" xmlns:xlink="http://www.w3.org/1999/xlink" preserveAspectRatio="xMidYMid" height="1em" width="1em">
  <g>
    <path d="M197.28,548.749 L202.707,458.319 L217.692,432.739 C217.692,432.739 183.586,446.691 126.487,446.691 C69.387,446.691 35.798,432.997 35.798,432.997 L52.592,460.901 L58.533,548.749 C58.533,558.167 89.592,565.801 127.907,565.801 C166.22,565.801 197.28,558.167 197.28,548.749" fill="#D34A47"/>
    <path d="M180.161,126.454 L191.552,81.429 L254.633,15.053 L238.007,0.892 L171.223,71.599 L157.997,125.392 C148.414,125.068 138.413,124.895 128.124,124.895 C57.788,124.895 0.769,132.911 0.769,142.797 C0.769,152.684 57.788,160.699 128.124,160.699 C198.459,160.699 255.477,152.684 255.477,142.797 C255.477,135.517 224.553,129.251 180.161,126.454" fill="#D34A47"/>
    <path d="M173.535,151.669 C173.535,151.669 171.068,152.222 163.811,152.253 C156.552,152.283 151.398,152.206 149.345,150.336 C148.793,149.834 148.491,148.837 148.494,148.162 C148.5,146.877 149.412,146.12 150.574,145.646 L151.673,147.37 C151.195,147.535 150.922,147.73 150.921,147.938 C150.917,148.914 158.343,149.582 164.023,149.51 C169.704,149.44 176.568,148.972 176.574,148.01 C176.574,147.719 176.055,147.445 175.152,147.229 L176.246,145.517 C177.718,145.974 179.003,146.857 179,148.385 C178.986,150.983 175.68,151.378 173.535,151.669" fill="#FFFFFF"/>
    <path d="M254.509,15.184 C256.095,13.352 253.688,8.666 249.133,4.719 C244.576,0.774 239.596,-0.94 238.007,0.892 C236.42,2.724 238.828,7.41 243.385,11.355 C247.94,15.301 252.922,17.017 254.509,15.184" fill="#D34A47"/>
    <path d="M194.246,327.865 C192.751,313.481 225.708,292.649 217.25,291.982 C199.042,293.023 189.98,313.32 180.819,334.578 C177.462,342.369 165.975,375.591 158.441,371.501 C150.909,367.413 168.206,340.094 173.054,323.87 C167.46,327.972 146.945,343.911 141.658,328.984 C133.158,336.203 114.995,340.114 117.044,321.151 C112.522,329.161 102.373,340.344 90.191,335.697 C74.193,329.596 99.461,278.635 105.744,281.206 C112.028,283.776 104.476,295.385 102.498,299.893 C98.148,309.814 93.123,322.286 96.48,324.839 C102.231,329.213 117.881,308.292 118.229,307.832 C121.156,303.965 129.495,278.666 136.216,281.571 C142.937,284.476 119.452,317.879 128.233,324.508 C130.004,325.846 137.25,323.683 141.658,318.914 C144.51,315.829 143.529,308.996 153.036,286.324 C162.543,263.653 171.016,235.419 177.536,237.57 C184.056,239.72 178.682,254.211 176.343,259.613 C165.367,284.967 146.387,326.854 155.338,323.683 C164.289,320.513 168.95,320.327 177.715,310.07 C186.48,299.813 186.076,282.918 191.918,283.277 C197.762,283.637 196.781,289.054 195.364,293.179 C201.114,286.599 222.62,272.741 227.812,286.466 C233.962,302.715 197.043,326.186 206.248,324.989 C215.223,323.822 229.763,314.613 235.971,306.24 L253.059,152.614 C253.059,152.614 235.864,166.844 126.47,166.844 C17.075,166.844 1.659,152.91 1.659,152.91 L16.207,293.134 C23.929,271.187 42.266,226.795 71.17,228.285 C84.318,228.963 101.87,254.28 86.835,255.138 C80.471,255.5 79.825,242.501 72.289,240.592 C66.851,239.214 59.28,243.635 54.387,248.425 C44.629,257.975 23.642,295.654 26.415,314.439 C29.948,338.388 59.463,306.117 64.457,296.536 C67.974,289.787 70.35,269.791 78.042,271.889 C85.735,273.987 77.371,294.623 71.795,312.868 C65.531,333.355 62.238,354.966 54.387,352.48 C46.535,349.996 59.325,323.548 58.862,318.914 C51.482,325.723 37.886,342.961 20.492,334.429 L29.527,421.507 C29.527,421.507 53.54,440.48 125.877,440.48 C198.214,440.48 223.116,421.803 223.116,421.803 L234.335,320.946 C225.156,329.884 196.106,345.756 194.246,327.865" fill="#D34A47"/>
  </g>
</svg>
